src/status/symbolic/channel-insecure-symbolic.svg

<?xml version="1.0" encoding="UTF-8" standalone="no"?>
<svg
   xmlns:dc="http://purl.org/dc/elements/1.1/"
   xmlns:cc="http://creativecommons.org/ns#"
   xmlns:rdf="http://www.w3.org/1999/02/22-rdf-syntax-ns#"
   xmlns:svg="http://www.w3.org/2000/svg"
   xmlns="http://www.w3.org/2000/svg"
   height="16"
   width="16"
   version="1.1"
   id="svg6">
  <metadata
     id="metadata12">
    <rdf:RDF>
      <cc:Work
         rdf:about="">
        <dc:format>image/svg+xml</dc:format>
        <dc:type
           rdf:resource="http://purl.org/dc/dcmitype/StillImage" />
        <dc:title />
      </cc:Work>
    </rdf:RDF>
  </metadata>
  <defs
     id="defs10" />
  <path
     style="opacity:1;vector-effect:none;fill:#555761;fill-opacity:1;stroke:none;stroke-width:0.99199998;stroke-linecap:square;stroke-linejoin:miter;stroke-miterlimit:4;stroke-dasharray:none;stroke-dashoffset:0;stroke-opacity:1"
     d="M 8 1.0039062 A 4 4 0 0 0 4.015625 4.6679688 L 5 5.6523438 L 5 5.0039062 A 3 3 0 0 1 8 2.0039062 A 3 3 0 0 1 11 5.0039062 L 11 7.0039062 L 10 7.0039062 L 10 5.0039062 A 2 2 0 0 0 8 3.0039062 A 2 2 0 0 0 6 5.0039062 L 6 6.6523438 L 7.3515625 8.0039062 L 12 8.0039062 L 12 9.7539062 L 12 11.003906 L 12 12.253906 C 12 12.369934 11.968523 12.476344 11.921875 12.574219 L 12.720703 13.373047 C 12.895212 13.127856 13 12.829093 13 12.503906 L 13 11.003906 L 13 8.5058594 L 13 7.0039062 L 12 7.0039062 L 12 5.0039062 A 4 4 0 0 0 8 1.0039062 z M 8 4.0039062 A 1 1 0 0 1 9 5.0039062 L 9 7.0039062 L 7 7.0039062 L 7 5.0039062 A 1 1 0 0 1 8 4.0039062 z M 4 6.4160156 L 4 7.0039062 L 3 7.0039062 L 3 8.5058594 L 3 11.003906 L 3 12.503906 C 3 13.334906 3.669 14.003906 4.5 14.003906 L 11.5 14.003906 C 11.527461 14.003906 11.55299 13.997537 11.580078 13.996094 L 10.587891 13.003906 L 4.75 13.003906 C 4.3345 13.003906 4 12.669406 4 12.253906 L 4 11.003906 L 4 9.7539062 L 4 8.0039062 L 5.5878906 8.0039062 L 4 6.4160156 z "
     id="rect986-3" />
  <g
     style="color:#bebebe;fill:#c6262e"
     transform="translate(-593,271.003)"
     id="g4-3">
    <path
       d="m 594.442,-270.441 -0.883,0.882 14,14 0.883,-0.882 z"
       overflow="visible"
       style="overflow:visible;isolation:auto;mix-blend-mode:normal;fill:#c6262e;marker:none"
       id="path2-6"
       class="error" />
  </g>
</svg>

<svg width="16" height="16" version="1.1" xmlns="http://www.w3.org/2000/svg">
 <path d="m8 1.0039a4 4 0 0 0-3.9844 3.6641l0.98438 0.98438v-0.64844a3 3 0 0 1 3-3 3 3 0 0 1 3 3v2h-1v-2a2 2 0 0 0-2-2 2 2 0 0 0-2 2v1.6484l1.3516 1.3516h4.6484v1.75 1.25 1.25c0 0.11603-0.031477 0.22244-0.078125 0.32031l0.79883 0.79883c0.17451-0.24519 0.2793-0.54395 0.2793-0.86914v-1.5-2.498-1.502h-1v-2a4 4 0 0 0-4-4zm0 3a1 1 0 0 1 1 1v2h-2v-2a1 1 0 0 1 1-1zm-4 2.4121v0.58789h-1v1.502 2.498 1.5c0 0.831 0.669 1.5 1.5 1.5h7c0.027461 0 0.05299-0.006369 0.080078-0.007812l-0.99219-0.99219h-5.8379c-0.4155 0-0.75-0.3345-0.75-0.75v-1.25-1.25-1.75h1.5879l-1.5879-1.5879z" fill="#363636"/>
 <g transform="translate(-593 271)" color="#bebebe" fill="#c6262e">
  <path class="error" d="m594.44-270.44-0.883 0.882 14 14 0.883-0.882z" fill="#c6262e" overflow="visible" style="isolation:auto;mix-blend-mode:normal"/>
 </g>
</svg>
